X: 21307
T: Kendal Lilt
R: jig
M: 6/8
K: Dmajor
|:A/G/|F2 A d2 A|E2 A A2 g|f2 a afd|ecA A^G=G|
F2 A d2 A|E2 A a2 g|f2 [da] gec|d3- d2:|
|:g|f2 b a2 f|aba g2 e|d2 f [Aa]fd|e2 c A2 [dg]|
aba a2 f|ge/f/g gag|f2 [da] gec|d3- d2:|

